styles/4/Numix/16/places/purple-fileopen.svg

<?xml version="1.0" encoding="UTF-8" standalone="no"?>
<!-- Created with Inkscape (http://www.inkscape.org/) -->

<svg
   xmlns:dc="http://purl.org/dc/elements/1.1/"
   xmlns:cc="http://creativecommons.org/ns#"
   xmlns:rdf="http://www.w3.org/1999/02/22-rdf-syntax-ns#"
   xmlns:svg="http://www.w3.org/2000/svg"
   xmlns="http://www.w3.org/2000/svg"
   xmlns:sodipodi="http://sodipodi.sourceforge.net/DTD/sodipodi-0.dtd"
   xmlns:inkscape="http://www.inkscape.org/namespaces/inkscape"
   width="16"
   height="16"
   id="svg2"
   version="1.1"
   inkscape:version="0.91 r"
   sodipodi:docname="purple-fileopen.svg"
   inkscape:export-filename="/media/Data/Main/Visuals/Icons/Numix/Desktop/repos/numix-wiki/Gjorgi/Numix-folders/48/New/folder-144.png"
   inkscape:export-xdpi="270"
   inkscape:export-ydpi="270">
  <defs
     id="defs4" />
  <sodipodi:namedview
     id="base"
     pagecolor="#ffffff"
     bordercolor="#666666"
     borderopacity="1.0"
     inkscape:pageopacity="0.0"
     inkscape:pageshadow="2"
     inkscape:zoom="70.517251"
     inkscape:cx="9.3186187"
     inkscape:cy="12.036368"
     inkscape:document-units="px"
     inkscape:current-layer="layer1"
     showgrid="true"
     inkscape:window-width="1920"
     inkscape:window-height="1023"
     inkscape:window-x="0"
     inkscape:window-y="28"
     inkscape:window-maximized="1"
     showguides="true"
     inkscape:guide-bbox="true">
    <inkscape:grid
       type="xygrid"
       id="grid2985"
       empspacing="5"
       visible="true"
       enabled="true"
       snapvisiblegridlinesonly="true" />
  </sodipodi:namedview>
  <metadata
     id="metadata7">
    <rdf:RDF>
      <cc:Work
         rdf:about="">
        <dc:format>image/svg+xml</dc:format>
        <dc:type
           rdf:resource="http://purl.org/dc/dcmitype/StillImage" />
        <dc:title />
      </cc:Work>
    </rdf:RDF>
  </metadata>
  <g
     inkscape:label="Layer 1"
     inkscape:groupmode="layer"
     id="layer1"
     transform="translate(0,-1036.3622)">
    <path
       style="fill:#e3e1cf;fill-opacity:1;stroke:none"
       d="M 2.8125 0 C 1.3515161 0 1.0563883 0.70864348 1 2 L 1 8 C 1 9.108 1.9474 10 3 10 L 13.0625 10 C 14.1151 10 15 9.108 15 8 L 15 2 L 13 0 L 4 0 L 2.8125 0 z "
       transform="translate(0,1036.3622)"
       id="path3004" />
    <rect
       ry="1"
       rx="1"
       y="1041.3622"
       x="0"
       height="11"
       width="16"
       id="rect2992"
       style="fill:#7e57c2;fill-opacity:1;stroke:none" />
    <path
       style="opacity:0.1;fill:#ffffff;fill-opacity:1;stroke:none"
       d="M 1 5 C 0.446 5 0 5.446 0 6 L 16 6 C 16 5.446 15.554 5 15 5 L 1 5 z "
       transform="translate(0,1036.3622)"
       id="path2994" />
    <path
       style="fill:#ffffff;stroke:none;stroke-width:1px;stroke-linecap:butt;stroke-linejoin:miter;stroke-opacity:1;fill-opacity:1"
       d="m 13,0 0,2 2,0 z"
       id="path3864"
       inkscape:connector-curvature="0"
       transform="translate(0,1036.3622)" />
    <path
       inkscape:connector-curvature="0"
       id="path3866"
       d="m 15,1040.3622 0,-2 -2,0 z"
       style="fill:#000000;fill-opacity:1;stroke:none;opacity:0.2" />
    <rect
       style="fill:#a1a195;fill-opacity:1;stroke:none"
       id="rect3867"
       width="8"
       height="1.0000174"
       x="3"
       y="1037.3622"
       rx="0.5"
       ry="0.5" />
    <rect
       ry="0.5"
       rx="0.5"
       y="1039.3622"
       x="3"
       height="1.0000174"
       width="10"
       id="rect3927"
       style="fill:#a1a195;fill-opacity:1;stroke:none" />
  </g>
</svg>

<!-- Created with Inkscape (http://www.inkscape.org/) -->
<svg xmlns="http://www.w3.org/2000/svg" viewBox="0 0 16 16">
 <g transform="translate(0,-1036.3622)">
  <path d="m 2.813 0 c -1.461 0 -1.756 0.709 -1.813 2 l 0 6 c 0 1.108 0.947 2 2 2 l 10.06 0 c 1.053 0 1.938 -0.892 1.938 -2 l 0 -6 l -2 -2 l -9 0 l -1.188 0 z" transform="translate(0,1036.3622)" style="fill:#e3e1cf;fill-opacity:1;stroke:none"/>
  <rect rx="1" y="1041.36" height="11" width="16" style="fill:#7e57c2;fill-opacity:1;stroke:none"/>
  <path d="M 1 5 C 0.446 5 0 5.446 0 6 L 16 6 C 16 5.446 15.554 5 15 5 L 1 5 z " transform="translate(0,1036.3622)" style="fill:#fff;opacity:0.1;fill-opacity:1;stroke:none"/>
  <path d="m 13 0 0 2 2 0 z" transform="translate(0,1036.3622)" style="fill:#fff;fill-opacity:1;stroke:none"/>
  <path d="m 15 1040.36 0 -2 -2 0 z" style="fill:#000;opacity:0.2;fill-opacity:1;stroke:none"/>
  <rect width="8" height="1" x="3" y="1037.36" rx="0.5" style="fill:#a1a195;fill-opacity:1;stroke:none"/>
  <rect rx="0.5" y="1039.36" x="3" height="1" width="10" style="fill:#a1a195;fill-opacity:1;stroke:none"/>
 </g>
</svg>
